!!!!SEGMENT: pl-cz--iii-347--002_kobierkowicz-jozef--caelo-rores-fluunt.krn
!!!cenid: 17xx:923
!!!COM: Kobierkowicz, Józef
!!!COM-rismid: pe30017725
!!!CDT: <1721->=1735
!!!CNT: Polish
!!!OTL: Caelo rores fluunt
!!!PDT:
!!!AGN: Sacred
!!!SMS-siglum: PL-CZ
!!!SMS-shelfmark: III-347
!!!SMS-shelfwork: 002 W
!!!SMS-variant:
!!!SMS-altvar:
!!!NIFC-rismid: 300237568
!!!URL-scan: http://repozytorium.nifc.pl/skany/pl-cz-nut--iii-347
!!!ONB-nifc: UWAGA: In pace princeps i Caelo rores fluunt to osobne utwory
**kern	**kern	**dynam	**kern	**dynam	**kern	**text	**kern	**text	**kern	**kern
*group3	*group3	*	*group3	*	*group2	*	*group2	*	*group1	*group1
*part7	*part6	*part6	*part5	*part5	*part4	*part4	*part3	*part3	*part2	*part1
*staff7	*staff6	*	*staff5	*	*staff4	*staff4	*staff3	*staff3	*staff2	*staff1
*I"Baſso	*I"Violino 2do	*	*I"Violino 1mo	*	*I"Tenore	*	*I"Alto	*	*I"Clar: 2do Ex D	*I"Clar: 1mo Ex D
*I'b	*I'vl 2	*	*I'vl 1	*	*I'T	*	*I'A	*	*I'clno 2 in D	*I'clno 1 in D
*Icello	*Ivioln	*	*Ivioln	*	*Itenor	*	*Ialto	*	*Iclrno	*Iclrno
*ICstr	*ICstr	*	*ICstr	*	*ICvox	*	*ICvox	*	*ICbras	*ICbras
*clefF4	*clefG2	*	*clefG2	*	*clefF4	*	*clefC1	*	*clefG2	*clefG2
*	*	*	*	*	*ITrd-1c-2	*	*ITrd-1c-2	*	*ITrd-1c-2	*ITrd-1c-2
*k[f#c#g#]	*k[f#c#g#]	*	*k[f#c#g#]	*	*k[f#c#g#]	*	*k[f#c#g#]	*	*k[f#c#g#]	*k[f#c#g#]
*A:	*A:	*	*A:	*	*A:	*	*A:	*	*A:	*A:
*M6/4	*M6/4	*	*M6/4	*	*M6/4	*	*M6/4	*	*M6/4	*M6/4
*2\right	*2\right	*	*2\right	*	*2\right	*	*2\right	*	*2\right	*2\right
=1	=1	=1	=1	=1	=1	=1	=1	=1	=1	=1
!LO:TX:a:t=2do:note=oznaczenie drugiego utworu w rękopisie	!LO:TX:a:t=2do:note=oznaczenie drugiego utworu w rękopisie	!	!LO:TX:a:t=2do:note=oznaczenie drugiego utworu w rękopisie	!	!LO:TX:a:t=2do:note=oznaczenie drugiego utworu w rękopisie	!	!LO:TX:a:t=2do:note=oznaczenie drugiego utworu w rękopisie	!	!	!
!LO:TX:t=P:problem=przy kluczu krzyżyki C# i F# jeden nad drugim	!LO:TX:t=P:problem=przy kluczu krzyżyki cc# i ff# jeden nad drugim	!	!LO:TX:t=P:problem=przy kluczu krzyżyki cc# i ff# jeden nad drugim	!	!LO:TX:t=P:problem=z niezrozumiałych względów zapis partii w transpozycji in D	!	!LO:TX:t=P:problem=z niezrozumiałych względów zapis partii w transpozycji in D	!	!LO:TX:i:a:t=Tacet	!LO:TX:i:a:t=Tacet
4AA/	4aa\	.	4aa\	.	1.r	.	1.r	.	1.ryy	1.ryy
2E\	2gg#\	.	2bb\	.	.	.	.	.	.	.
4E\	8aa\L	.	8ccc#\L	.	.	.	.	.	.	.
.	16gg#\L	.	16bb\L	.	.	.	.	.	.	.
.	16ff#\JJ	.	16aa\JJ	.	.	.	.	.	.	.
4EE/	4gg#\	.	4bb\	.	.	.	.	.	.	.
4r	4r	.	4r	.	.	.	.	.	.	.
=2	=2	=2	=2	=2	=2	=2	=2	=2	=2	=2
!	!	!	!	!LO:DY:b	!	!	!	!	!	!
!	!	!LO:DY:b	!	!	!	!	!	!	!	!
4A\	4a/	p	4a/	p	1.r	.	1.r	.	1.ryy	1.ryy
2E\	2g#/	.	2b/	.	.	.	.	.	.	.
4E\	8a/L	.	8cc#/L	.	.	.	.	.	.	.
.	16g#/L	.	16b/L	.	.	.	.	.	.	.
.	16f#/JJ	.	16a/JJ	.	.	.	.	.	.	.
4EE/	4g#/	.	4b/	.	.	.	.	.	.	.
4r	4r	.	4r	.	.	.	.	.	.	.
=3	=3	=3	=3	=3	=3	=3	=3	=3	=3	=3
!	!	!	!	!LO:DY:b	!	!	!	!	!	!
!	!	!LO:DY:b	!	!	!	!	!	!	!	!
4A\	8a/L	f	8cc#\L	f	1.r	.	1.r	.	1.ryy	1.ryy
.	8b/J	.	8dd\J	.	.	.	.	.	.	.
4r	4cc#\	.	4ee\	.	.	.	.	.	.	.
4A\	8b/L	.	8dd\L	.	.	.	.	.	.	.
.	8a/J	.	8cc#\J	.	.	.	.	.	.	.
4D\	8b/L	.	8dd\L	.	.	.	.	.	.	.
.	8a/J	.	8cc#\J	.	.	.	.	.	.	.
4E\	4g#/	.	4b/	.	.	.	.	.	.	.
4r	4r	.	4r	.	.	.	.	.	.	.
=4	=4	=4	=4	=4	=4	=4	=4	=4	=4	=4
8A\L	8a/L	.	8aa\L	.	1.r	.	1.r	.	1.ryy	1.ryy
16G#\L	16g#/L	.	16gg#\L	.	.	.	.	.	.	.
16F#\JJ	16f#/JJ	.	16ff#\JJ	.	.	.	.	.	.	.
4E\	4e/	.	4ee\	.	.	.	.	.	.	.
8F#\L	8f#/L	.	8ff#\L	.	.	.	.	.	.	.
8G#\J	8g#/J	.	8gg#\J	.	.	.	.	.	.	.
8A\L	8a/L	.	8aa\L	.	.	.	.	.	.	.
16B\L	16b/L	.	16bb\L	.	.	.	.	.	.	.
16c#\JJ	16cc#/JJ	.	16ccc#\JJ	.	.	.	.	.	.	.
!	!LO:TX:t=P:problem=mixed beam	!	!	!	!	!	!	!	!	!
8d\L	8dd\L	.	8ddd\L	.	.	.	.	.	.	.
8B\	8b\	.	8bb\	.	.	.	.	.	.	.
8c#\	8cc#\	.	8ccc#\	.	.	.	.	.	.	.
8G#\J	8g#/J	.	8gg#\J	.	.	.	.	.	.	.
=5	=5	=5	=5	=5	=5	=5	=5	=5	=5	=5
8A\L	8a/L	.	8aa\L	.	1.r	.	1.r	.	1.ryy	1.ryy
16G#\L	16g#/L	.	16gg#\L	.	.	.	.	.	.	.
16F#\JJ	16f#/JJ	.	16ff#\JJ	.	.	.	.	.	.	.
4E\	4e/	.	4ee\	.	.	.	.	.	.	.
8F#\L	8f#/L	.	8ff#\L	.	.	.	.	.	.	.
8G#\J	8g#/J	.	8gg#\J	.	.	.	.	.	.	.
8A\L	8a\L	.	8aa\L	.	.	.	.	.	.	.
16B\L	16b\L	.	16bb\L	.	.	.	.	.	.	.
16c#\JJ	16cc#\JJ	.	16ccc#\JJ	.	.	.	.	.	.	.
!	!LO:TX:t=P:problem=mixed beam	!	!	!	!	!	!	!	!	!
8d\L	8dd\L	.	8ddd\L	.	.	.	.	.	.	.
8B\	8b\	.	8bb\	.	.	.	.	.	.	.
8c#\	8cc#\	.	8ccc#\	.	.	.	.	.	.	.
8G#\J	8g#/J	.	8gg#\J	.	.	.	.	.	.	.
=6	=6	=6	=6	=6	=6	=6	=6	=6	=6	=6
!LO:TX:t=P:problem=mixed beam	!	!	!	!	!	!	!	!	!	!
8A\L	8a/L	.	8aa\L	.	1.r	.	1.r	.	1.ryy	1.ryy
8BB/J	8b/J	.	8bb\J	.	.	.	.	.	.	.
4C#/	4cc#\	.	4ccc#\	.	.	.	.	.	.	.
8C#/L	8cc#\L	.	8ccc#\L	.	.	.	.	.	.	.
!	!LO:SIC:v:custos:ee	!	!	!	!	!	!	!	!	!
8D/J	8dd\J	.	8ddd\J	.	.	.	.	.	.	.
!	!LO:LB:g=original	!	!	!	!	!	!	!	!	!
4.E\	4.ee\	.	4.eee\	.	.	.	.	.	.	.
8EE/	8e/	.	8ee\	.	.	.	.	.	.	.
!	!	!	!LO:TX:t=P:problem=skreślone dwie nuty	!	!	!	!	!	!	!
4AA/	4a/	.	4aa\	.	.	.	.	.	.	.
=7	=7	=7	=7	=7	=7	=7	=7	=7	=7	=7
4A\	4ee\	.	8cc#\	.	1.r	.	1.r	.	1.ryy	1.ryy
.	.	.	4ee\	.	.	.	.	.	.	.
4A\	4cc#\	.	.	.	.	.	.	.	.	.
.	.	.	4cc#\	.	.	.	.	.	.	.
4A\	4a/	.	.	.	.	.	.	.	.	.
!LO:LB:g=original	!	!	!LO:SIC:v:custos:ff#	!	!	!	!	!	!	!
.	.	.	8ee\	.	.	.	.	.	.	.
!	!	!	!LO:LB:g=original	!	!	!	!	!	!	!
4d\	4cc#\	.	8ff#\L	.	.	.	.	.	.	.
.	.	.	8ee\	.	.	.	.	.	.	.
4d\	4ff#\	.	8dd\	.	.	.	.	.	.	.
.	.	.	8cc#\	.	.	.	.	.	.	.
4d\	4ccc#\	.	8b\	.	.	.	.	.	.	.
.	.	.	8a\J	.	.	.	.	.	.	.
=8	=8	=8	=8	=8	=8	=8	=8	=8	=8	=8
4G#\	4ff#\	.	8b\	.	1.r	.	1.r	.	1.ryy	1.ryy
.	.	.	4dd\	.	.	.	.	.	.	.
4G#\	4dd\	.	.	.	.	.	.	.	.	.
.	.	.	4b/	.	.	.	.	.	.	.
4G#\	4ff#\	.	.	.	.	.	.	.	.	.
.	.	.	8dd\	.	.	.	.	.	.	.
4c#\	4b/	.	8ee\L	.	.	.	.	.	.	.
.	.	.	8dd\	.	.	.	.	.	.	.
4c#\	4ee\	.	8cc#\	.	.	.	.	.	.	.
.	.	.	8b\	.	.	.	.	.	.	.
4c#\	4bb\	.	8a\	.	.	.	.	.	.	.
.	.	.	8g#\J	.	.	.	.	.	.	.
=9	=9	=9	=9	=9	=9	=9	=9	=9	=9	=9
4F#\	4ee\	.	8a/	.	1.r	.	1.r	.	1.ryy	1.ryy
.	.	.	4cc#\	.	.	.	.	.	.	.
4F#\	4cc#\	.	.	.	.	.	.	.	.	.
.	.	.	4a/	.	.	.	.	.	.	.
4F#\	4ee\	.	.	.	.	.	.	.	.	.
.	.	.	8cc#\	.	.	.	.	.	.	.
4B\	4a/	.	8dd\L	.	.	.	.	.	.	.
.	.	.	8cc#\	.	.	.	.	.	.	.
4B\	4cc#\	.	8b\	.	.	.	.	.	.	.
.	.	.	8a\J	.	.	.	.	.	.	.
4B\	4aa\	.	8g#/L	.	.	.	.	.	.	.
.	.	.	8f#/J	.	.	.	.	.	.	.
=10	=10	=10	=10	=10	=10	=10	=10	=10	=10	=10
4E\	8b/L	.	8dd\L	.	1.r	.	1.r	.	1.ryy	1.ryy
.	16a/L	.	16cc#\L	.	.	.	.	.	.	.
.	16g#/JJ	.	16b\JJ	.	.	.	.	.	.	.
4A\	4a/	.	4cc#\	.	.	.	.	.	.	.
4A\	4cc#\	.	4ee\	.	.	.	.	.	.	.
4E\	8b/L	.	8dd\L	.	.	.	.	.	.	.
.	8a/	.	8cc#\	.	.	.	.	.	.	.
4E\	8b/	.	8dd\	.	.	.	.	.	.	.
.	8a/J	.	8cc#\J	.	.	.	.	.	.	.
4E\	4g#/	.	4b/	.	.	.	.	.	.	.
=11	=11	=11	=11	=11	=11	=11	=11	=11	=11	=11
4A\	8a/L	.	8cc#\L	.	1.r	.	1.r	.	1.ryy	1.ryy
.	8b/J	.	8dd\J	.	.	.	.	.	.	.
4r	4cc#\	.	4ee\	.	.	.	.	.	.	.
4D/	8b/L	.	8dd\L	.	.	.	.	.	.	.
.	8a/J	.	8cc#\J	.	.	.	.	.	.	.
2E\	4.g#/	.	4.b/	.	.	.	.	.	.	.
.	8a/	.	8a/	.	.	.	.	.	.	.
4AA/	4a/	.	4a/	.	.	.	.	.	.	.
=12	=12	=12	=12	=12	=12	=12	=12	=12	=12	=12
!	!	!	!	!	!	!	!LO:TX:t=P:pion:problem	!	!	!
!	!	!	!	!LO:DY:b	!	!	!	!	!	!
!	!	!LO:DY:b	!	!	!	!	!	!	!	!
4A\	4aa\	p	4aa\	p	1.r	.	4a\	Cae-	1.ryy	1.ryy
2E\	2gg#\	.	2bb\	.	.	.	2b\	-lo	.	.
4A\	8aa\L	.	8ccc#\L	.	.	.	8cc#\L	ro-	.	.
.	16gg#\L	.	16bb\L	.	.	.	16b\L	.	.	.
.	16ff#\JJ	.	16aa\JJ	.	.	.	16a\JJ	.	.	.
4E\	4gg#\	.	4bb\	.	.	.	4b\	-res	.	.
4EE/	4r	.	4r	.	.	.	4r	.	.	.
=13	=13	=13	=13	=13	=13	=13	=13	=13	=13	=13
!	!	!	!	!	!	!	!LO:TX:t=P:problem=pauza i adnotacja dopisane później	!	!	!
!	!	!	!	!	!	!	!LO:TX:a:t=1	!	!	!
4A\	4a/	.	4a/	.	4A\	Flu-	1.r	.	1.ryy	1.ryy
2E\	2g#/	.	2b/	.	2B\	-unt	.	.	.	.
4A\	8a/L	.	8cc#/L	.	8c#\L	flo-	.	.	.	.
.	16g#/L	.	16b/L	.	16B\L	.	.	.	.	.
.	16f#/JJ	.	16a/JJ	.	16A\JJ	.	.	.	.	.
4E\	4g#/	.	4b/	.	4B\	-res	.	.	.	.
4EE/	4r	.	4r	.	4r	.	.	.	.	.
=14	=14	=14	=14	=14	=14	=14	=14	=14	=14	=14
!	!LO:TX:a:t=1	!	!LO:TX:i:a:t=1	!	!	!	!	!	!	!
2A\	1.r	.	1.r	.	8A\	et	8cc#\	et	1.ryy	1.ryy
.	.	.	.	.	8B\	ter-	8dd\	ter-	.	.
.	.	.	.	.	4c#\	-ras	4ee,\	-ras	.	.
4r	.	.	.	.	(8B\L	in	(8dd\L	in	.	.
.	.	.	.	.	8A\J)	.	8cc#\J)	.	.	.
4D\	.	.	.	.	8B\	e-	8dd\	-e-	.	.
.	.	.	.	.	8A\	-bri-	8cc#\	-bri-	.	.
4E\	.	.	.	.	4G#\	-ant	4b\	-ant	.	.
4E\	.	.	.	.	4r	.	4r	.	.	.
!	!	!	!	!	!LO:LB:g=original	!	!	!	!	!
=15	=15	=15	=15	=15	=15	=15	=15	=15	=15	=15
8A\L	8a/L	.	8aa\L	.	8A\	Dul-	8a/	dul-	1.ryy	1.ryy
16G#\L	16g#/L	.	16gg#\L	.	(16G#\LL	-ce	(16g#/LL	-ce	.	.
16F#\JJ	16f#/JJ	.	16ff#\JJ	.	16F#\JJ)	.	16f#,/JJ)	.	.	.
4E\	4e/	.	4ee\	.	4E/	me-	4e/	me-	.	.
8F#\L	8f#/L	.	8ff#\L	.	(8F#\L	-los	(8f#/L	-los	.	.
8G#\J	8g#/J	.	8gg#\J	.	8G#\J)	.	8g#,/J)	.	.	.
8A\L	8a\L	.	8aa\L	.	8A\	im-	8a/	im-	.	.
16B\L	16b\L	.	16bb\L	.	(16B\LL	-plet	16b\LL	-plet	.	.
16c#\JJ	16cc#\JJ	.	16ccc#\JJ	.	16c#\JJ)	.	16cc#\JJ	.	.	.
8d\L	8dd\L	.	8ddd\L	.	(8d\L	cae-	(8dd\L	cae-	.	.
!	!	!	!LO:SIC:v:custos:bb	!	!	!	!	!	!	!
8B\	8b\J	.	8bb\J	.	8B\J)	.	8b\J)	.	.	.
!	!	!	!LO:LB:g=original	!	!	!	!	!	!	!
!	!	!	!	!	!	!	!LO:TX:t=P:problem=mixed beam	!	!	!
8c#\	8cc#\L	.	8ccc#\L	.	(8c#\L	-los	(8cc#\L	-los	.	.
!	!LO:TX:t=P:problem=skreślone pół taktu	!	!	!	!	!	!	!	!	!
8G#\J	8g#\J	.	8gg#\J	.	8G#\J)	.	8g#/J)	.	.	.
!	!LO:LB:g=original	!	!	!	!	!	!	!	!	!
=16	=16	=16	=16	=16	=16	=16	=16	=16	=16	=16
!	!	!	!	!LO:DY:b	!	!	!	!	!	!
!	!	!LO:DY:b	!	!	!	!	!	!	!	!
2A\	8a/L	f	8aa\L	f	2.A\	cae-	[2.a/	cae-	1.ryy	1.ryy
.	16g#/L	.	16gg#\L	.	.	.	.	.	.	.
.	16f#/JJ	.	16ff#\JJ	.	.	.	.	.	.	.
.	4e/	.	4ee\	.	.	.	.	.	.	.
4r	8f#/L	.	8ff#\L	.	.	.	.	.	.	.
.	8g#/J	.	8gg#\J	.	.	.	.	.	.	.
2AA/	8a/L	.	8aa\L	.	2A\	.	2a/]	.	.	.
.	16b/L	.	16bb\L	.	.	.	.	.	.	.
.	16cc#/JJ	.	16ccc#\JJ	.	.	.	.	.	.	.
.	8dd\L	.	8ddd\L	.	.	.	.	.	.	.
.	8b\	.	8bb\	.	.	.	.	.	.	.
4r	8cc#\	.	8ccc#\	.	4A\	-los	4a/	-los	.	.
.	8g#\J	.	8gg#\J	.	.	.	.	.	.	.
=17	=17	=17	=17	=17	=17	=17	=17	=17	=17	=17
4A\	4a/	.	4aa\	.	8A\	an-	8cc#\	an-	1.ryy	1.ryy
!	!	!	!	!	!	!	!LO:SIC:v:custos:ee	!	!	!
.	.	.	.	.	8B\	-ge-	8dd,\	-ge-	.	.
!	!	!	!	!	!	!	!LO:LB:g=original	!	!	!
4r	4r	.	4r	.	4c#\	-li	4ee\	-li	.	.
4D/	4r	.	4r	.	4d\	con-	(8dd\L	con-	.	.
.	.	.	.	.	.	.	8cc#\J)	.	.	.
!	!LO:N:vis=2	!	!LO:N:vis=2	!	!	!	!	!	!	!
2E\	2.r	.	2.r	.	4.e\	-iu-	4.b\	-ju-	.	.
.	.	.	.	.	8E/	-bi-	8a/	-bi-	.	.
4AA/	.	.	.	.	[<4A\	-lant	4a/	-lant	.	.
=18	=18	=18	=18	=18	=18	=18	=18	=18	=18	=18
2AA/	8a/L	.	8aa\L	.	2.A\_	.	[2.a/	.	1.ryy	1.ryy
.	16g#/L	.	16gg#\L	.	.	.	.	.	.	.
.	16f#/JJ	.	16ff#\JJ	.	.	.	.	.	.	.
.	4e/	.	4ee\	.	.	.	.	.	.	.
4r	8f#/L	.	8ff#\L	.	.	.	.	.	.	.
.	8g#/J	.	8gg#\J	.	.	.	.	.	.	.
2AA/	8a/L	.	8aa\L	.	2A\]	.	2a/]	.	.	.
.	16b/L	.	16bb\L	.	.	.	.	.	.	.
.	16cc#/JJ	.	16ccc#\JJ	.	.	.	.	.	.	.
.	8dd\L	.	8ddd\L	.	.	.	.	.	.	.
.	8b\	.	8bb\	.	.	.	.	.	.	.
4r	8cc#\	.	8ccc#\	.	4r	.	4r	.	.	.
.	8g#\J	.	8gg#\J	.	.	.	.	.	.	.
!LO:LB:g=original	!	!	!	!	!	!	!	!	!	!
=19	=19	=19	=19	=19	=19	=19	=19	=19	=19	=19
4A\	4a/	.	4aa\	.	8A\	an-	8cc#\	an-	1.ryy	1.ryy
.	.	.	.	.	8B\	-ge-	8dd\	-ge-	.	.
4r	4r	.	4r	.	4c#\	-li	4ee\	-li	.	.
4D/	4r	.	4r	.	(8B\L	con-	(8dd\L	con-	.	.
.	.	.	.	.	8A\J)	.	8cc#\J)	.	.	.
2E\	4r	.	4r	.	4.E/	-iu-	4.b\	-ju-	.	.
.	4r	.	4r	.	.	.	.	.	.	.
.	.	.	.	.	8E/	-bi-	8a/	-bi-	.	.
8A\L	4a/	.	4cc#\	.	4AA/	-lant	4a/	-lant	.	.
8G#\J	.	.	.	.	.	.	.	.	.	.
=20	=20	=20	=20	=20	=20	=20	=20	=20	=20	=20
!	!	!	!	!	!LO:TX:a:t=2	!	!LO:TX:i:a:t=3	!	!	!
4F#\	4a/	.	4cc#\	.	1.r	.	1.r	.	1.ryy	1.ryy
4r	4a/	.	4cc#\	.	.	.	.	.	.	.
4r	4a/	.	4cc#\	.	.	.	.	.	.	.
4F#\	8f#/	.	8a/	.	.	.	.	.	.	.
.	4a/	.	4cc#\	.	.	.	.	.	.	.
4r	.	.	.	.	.	.	.	.	.	.
.	4g#/	.	4b/	.	.	.	.	.	.	.
4r	.	.	.	.	.	.	.	.	.	.
.	8f#/	.	8a/	.	.	.	.	.	.	.
=21	=21	=21	=21	=21	=21	=21	=21	=21	=21	=21
4F#\	8f#/	.	8a/	.	1.r	.	1.r	.	1.ryy	1.ryy
.	4a/	.	4cc#\	.	.	.	.	.	.	.
4r	.	.	.	.	.	.	.	.	.	.
.	4g#/	.	4b/	.	.	.	.	.	.	.
4r	.	.	.	.	.	.	.	.	.	.
.	8f#/	.	8a/	.	.	.	.	.	.	.
4c#\	4f#/	.	4a/	.	.	.	.	.	.	.
8c#\L	4e#X/	.	4g#/	.	.	.	.	.	.	.
8B\	.	.	.	.	.	.	.	.	.	.
8A\	4r	.	4r	.	.	.	.	.	.	.
8G#\J	.	.	.	.	.	.	.	.	.	.
=22	=22	=22	=22	=22	=22	=22	=22	=22	=22	=22
!	!LO:N:vis=2	!	!LO:N:vis=2	!	!	!	!	!	!	!
2F#\	2.r	.	2.r	.	(4c#\	Ri-	1.r	.	1.ryy	1.ryy
.	.	.	.	.	4A\)	.	.	.	.	.
4r	.	.	.	.	(8G#\L	-dent	.	.	.	.
.	.	.	.	.	8F#\J)	.	.	.	.	.
4G#\	4r	.	4r	.	4E#X\	ſa-	.	.	.	.
4F#\	4r	.	4r	.	4F#\	-ta	.	.	.	.
4r	4f#/	.	4a/	.	4r	.	.	.	.	.
!	!	!	!	!	!LO:PB:g=original	!	!	!	!	!
=23	=23	=23	=23	=23	=23	=23	=23	=23	=23	=23
!	!LO:SIC:v:s=4e#/	!	!	!	!LO:TX:a:t=1	!	!	!	!	!
4C#/	4e/	.	4g#/	.	1.r	.	2gg#\	vi-	1.ryy	1.ryy
4E\	4r	.	4r	.	.	.	.	.	.	.
4F#\	4r	.	4r	.	.	.	8dd#X\L	-re(n)t	.	.
.	.	.	.	.	.	.	8cc#,\J	.	.	.
4G#\	4r	.	4r	.	.	.	4b#X\	pra-	.	.
!	!LO:TX:t=P:problem=skreslony takt	!	!	!	!	!	!	!	!	!
4C#/	4r	.	4r	.	.	.	4cc#\	-ta	.	.
4r	4e#X/	.	4g#/	.	.	.	4r	.	.	.
=24	=24	=24	=24	=24	=24	=24	=24	=24	=24	=24
!	!LO:SIC:v:s=8e#/	!	!	!	!	!	!	!	!	!
4C#/	8e/	.	8g#/	.	8E#X/	nos-	8g#/	nos-	1.ryy	1.ryy
.	4a/	.	4cc#\	.	8A\	-stro	8cc#,\	-tro	.	.
4r	.	.	.	.	(8A\L	Re-	(8cc#\L	Re-	.	.
.	4g#/	.	4b/	.	8G#\J)	.	8b\J)	.	.	.
4r	.	.	.	.	(8G#\L	-gi	(8b\L	-gi	.	.
!	!	!	!LO:SIC:v:custos:a	!	!	!	!	!	!	!
.	8f#/	.	8a/	.	8F#\J)	.	8a\J)	.	.	.
!	!LO:LB:g=original	!	!LO:LB:g=original	!	!	!	!	!	!	!
4c#\	8.f#/L	.	8.a/L	.	8.F#\	par-	8.a/	par-	.	.
.	16e#X/Jk	.	16g#/Jk	.	16C#/	-vu-	16g#/	-vu-	.	.
4r	4e#/	.	4g#/	.	4C#/	-lo	4g#/	-lo	.	.
4C#/	4e#/	.	4g#/	.	4r	.	4r	.	.	.
=25	=25	=25	=25	=25	=25	=25	=25	=25	=25	=25
!	!	!	!	!	!	!	!LO:N:vis=2	!	!	!
2E#X\	4f#/	.	4cc#\	.	4.c#\	gau-	2.r	.	1.ryy	1.ryy
.	4r	.	4r	.	.	.	.	.	.	.
.	.	.	.	.	8B\	.	.	.	.	.
4r	4r	.	4r	.	(8A\L	-dent	.	.	.	.
.	.	.	.	.	8G#\J)	.	.	.	.	.
!	!LO:N:vis=2	!	!LO:N:vis=2	!	!	!	!	!	!	!
!	!LO:SIC:v:custos:b	!	!	!	!	!	!	!	!	!
2F#\	2.r	.	2.r	.	2A\	fon-	(4.ff#\	gau-	.	.
.	.	.	.	.	.	.	8ee\)	.	.	.
4A\	.	.	.	.	4A\	-tes	8dd\L	-dent	.	.
!	!	!	!	!	!	!	!LO:SIC:v:custos:dd	!	!	!
.	.	.	.	.	.	.	8cc#\J	.	.	.
!	!LO:PB:g=original	!	!	!	!	!	!LO:PB:g=original	!	!	!
=26	=26	=26	=26	=26	=26	=26	=26	=26	=26	=26
2B\	4b/	.	4dd\	.	4.B\	sal-	2dd\	fon-	1.ryy	1.ryy
.	4r	.	4r	.	.	.	.	.	.	.
.	.	.	.	.	8A\	.	.	.	.	.
4r	4r	.	4r	.	(8G#\L	-tant	4dd\	-tes	.	.
.	.	.	.	.	8F#\J)	.	.	.	.	.
!	!LO:N:vis=2	!	!LO:N:vis=2	!	!	!	!	!	!	!
2E\	2.r	.	2.r	.	2G#\	mon-	4.ee\	Sal-	.	.
.	.	.	.	.	.	.	8dd\	.	.	.
4r	.	.	.	.	4G#\	-tes	(8cc#\L	-tant	.	.
.	.	.	.	.	.	.	8b\J)	.	.	.
=27	=27	=27	=27	=27	=27	=27	=27	=27	=27	=27
!	!LO:N:vis=2	!	!	!	!	!	!	!	!	!
2A\	2.r	.	4a/	.	2A\	mon-	2cc#\	mon-	1.ryy	1.ryy
.	.	.	4cc#\	.	.	.	.	.	.	.
4A\	.	.	4ee\	.	4A\	-tes	4cc#\	-tes	.	.
!	!	!	!	!	!LO:N:vis=2	!	!	!	!	!
!	!	!LO:DY:b	!	!	!	!	!	!	!	!
2G#\	4e/	p	4r	.	2.r	.	2ee\	ma-	.	.
.	4g#/	.	4r	.	.	.	.	.	.	.
4G#\	4b/	.	4b/	.	.	.	4ee\	-gno	.	.
=28	=28	=28	=28	=28	=28	=28	=28	=28	=28	=28
!	!	!	!	!LO:DY:b	!	!	!	!	!	!
4F#\	4ee\	.	8a/	p	2F#\	ma-	2ee\	mun-	1.ryy	1.ryy
.	.	.	4cc#\	.	.	.	.	.	.	.
4F#\	4cc#\	.	.	.	.	.	.	.	.	.
.	.	.	4a/	.	.	.	.	.	.	.
4F#\	4ee\	.	.	.	4F#\	-gno	4ee\	-di	.	.
.	.	.	8cc#\	.	.	.	.	.	.	.
4B\	4a/	.	8dd\L	.	2B\	mun-	[2.dd\	Do-	.	.
.	.	.	8cc#\	.	.	.	.	.	.	.
4B\	4dd\	.	8b\	.	.	.	.	.	.	.
.	.	.	8a\J	.	.	.	.	.	.	.
4B\	4aa\	.	8g#/L	.	4B\	-di	.	.	.	.
.	.	.	8f#/J	.	.	.	.	.	.	.
=29	=29	=29	=29	=29	=29	=29	=29	=29	=29	=29
4E\	4dd\	.	8g#/	.	2.E/	Do-	2.dd\]	.	1.ryy	1.ryy
.	.	.	4b/	.	.	.	.	.	.	.
4E\	4b/	.	.	.	.	.	.	.	.	.
.	.	.	4g#/	.	.	.	.	.	.	.
4E\	4dd\	.	.	.	.	.	.	.	.	.
.	.	.	8b/	.	.	.	.	.	.	.
4A\	4g#/	.	8cc#/L	.	2.A\	.	2.cc#\	.	.	.
.	.	.	8b/	.	.	.	.	.	.	.
4A\	4cc#\	.	8a/	.	.	.	.	.	.	.
.	.	.	8g#/	.	.	.	.	.	.	.
!LO:SIC:v:custos:D	!	!	!	!	!	!	!	!	!	!
4A\	4gg#\	.	8f#/	.	.	.	.	.	.	.
.	.	.	8e/J	.	.	.	.	.	.	.
!LO:PB:g=original	!	!	!	!	!	!	!	!	!	!
=30	=30	=30	=30	=30	=30	=30	=30	=30	=30	=30
2.D/	4cc#\	.	4f#/	.	4A\	.	4cc#\	.	1.ryy	1.ryy
.	4r	.	4r	.	4G#\	.	4b\	.	.	.
!	!	!	!	!	!LO:SIC:v:custos:A	!	!	!	!	!
.	4r	.	4r	.	4B\	.	4dd\	.	.	.
!	!	!	!	!	!LO:LB:g=original	!	!	!	!	!
4D/	4r	.	4r	.	8.A\	.	8.cc#\	.	.	.
.	.	.	.	.	16F#\	-mi-	16a/	-mi-	.	.
4D/	4r	.	4r	.	4G#\	-no	4b\	-no	.	.
4r	4g#/	.	4b/	.	4r	.	4r	.	.	.
=31	=31	=31	=31	=31	=31	=31	=31	=31	=31	=31
8A\L	8a/L	.	8aa\L	.	8A\	Ri-	8a/	Ri-	1.ryy	1.ryy
16G#\L	16g#/L	.	16gg#\L	.	(16G#\LL	-dent	(16g#/LL	-dent	.	.
16F#\JJ	16f#/JJ	.	16ff#\JJ	.	16F#\JJ)	.	16f#/JJ)	.	.	.
4E\	4e/	.	4ee\	.	4E/	-sa-	4e/	Sa-	.	.
8F#\L	8f#/L	.	8ff#\L	.	(8F#\L	-ta	(8f#/L	-ta	.	.
8G#\J	8g#/J	.	8gg#\J	.	8G#\J)	.	8g#/J)	.	.	.
8A\L	8a/L	.	8aa\L	.	8A\	vi-	8a/	vi-	.	.
16B\L	16b/L	.	16bb\L	.	16B\LL	-rent	(16b\LL	-rent	.	.
16c#\JJ	16cc#/JJ	.	16ccc#\JJ	.	16c#\JJ	.	16cc#\JJ)	.	.	.
!	!LO:TX:t=P:problem=mixed beam	!	!	!	!	!	!	!	!	!
8d\L	8dd\L	.	8ddd\L	.	(8d\L	pra-	(8dd\L	pra-	.	.
8B\	8b\	.	8bb\	.	8B\J)	.	8b\J)	.	.	.
!	!	!	!	!	!	!	!LO:TX:t=P:problem=mixed beam	!	!	!
8c#\	8cc#\	.	8ccc#\	.	(8c#\L	-ta	(8cc#\L	-ta	.	.
8G#\J	8g#/J	.	8gg#\J	.	8G#\J)	.	8g#/J)	.	.	.
=32	=32	=32	=32	=32	=32	=32	=32	=32	=32	=32
8A\L	8a/L	.	8aa\L	.	8A\	gau-	8a/	gau-	1.ryy	1.ryy
16G#\L	16g#/L	.	16gg#\L	.	(16G#\LL	-dent	(16g#/LL	-dent	.	.
!	!	!	!	!	!	!	!LO:SIC:v:custos:e	!	!	!
16F#\JJ	16f#/JJ	.	16ff#\JJ	.	16F#\JJ)	.	16f#/JJ)	.	.	.
!	!	!	!	!	!	!	!LO:LB:g=original	!	!	!
4E\	4e/	.	4ee\	.	4E/	mon-	4e/	mon-	.	.
8F#\L	8f#/L	.	8ff#\L	.	(8F#\L	-tes	(8f#/L	-tes	.	.
!	!	!	!LO:SIC:v:custos:gg#	!	!	!	!	!	!	!
8G#\J	8g#/J	.	8gg#\J	.	8G#\J)	.	8g#/J)	.	.	.
!	!	!	!LO:LB:g=original	!	!	!	!	!	!	!
8A\L	8a/L	.	8aa\L	.	8A\	Sal-	8a/	Sal-	.	.
16B\L	16b/L	.	16bb\L	.	(16B\LL	-tant	(16b\LL	-tant	.	.
16c#\JJ	16cc#/JJ	.	16ccc#\JJ	.	16c#\JJ)	.	16cc#\JJ)	.	.	.
!	!LO:TX:t=P:problem=mixed beam	!	!	!	!	!	!	!	!	!
8d\L	8dd\L	.	8ddd\L	.	(8d\L	fon-	(8dd\L	fon-	.	.
8B\	8b\	.	8bb\	.	8B\J)	.	8b\J)	.	.	.
!	!	!	!	!	!	!	!LO:TX:t=P:problem=mixed beam	!	!	!
8c#\	8cc#\	.	8ccc#\	.	(8c#\L	-tes	(8cc#\L	-tes	.	.
8G#\J	8g#/J	.	8gg#\J	.	8G#\J)	.	8g#/J)	.	.	.
=33	=33	=33	=33	=33	=33	=33	=33	=33	=33	=33
2A\	8a/L	.	8aa\L	.	2A\	mag-	2a/	ma-	1.ryy	1.ryy
.	16g#/L	.	16gg#\L	.	.	.	.	.	.	.
.	16f#/JJ	.	16ff#\JJ	.	.	.	.	.	.	.
.	4e/	.	4ee\	.	.	.	.	.	.	.
4AA/	8f#/L	.	8ff#\L	.	4A\	-no	4a/	-gno	.	.
.	8g#/J	.	8gg#\J	.	.	.	.	.	.	.
2A\	8a/L	.	8aa\L	.	4A\	mun-	4a/	mun-	.	.
.	16b/L	.	16bb\L	.	.	.	.	.	.	.
.	16cc#/JJ	.	16ccc#\JJ	.	.	.	.	.	.	.
!	!LO:TX:t=P:problem=mixed beam	!	!	!	!	!	!	!	!	!
.	8dd\L	.	8ddd\L	.	4A\	-di	4a/	-di	.	.
.	8b\	.	8bb\	.	.	.	.	.	.	.
4r	8cc#\	.	8ccc#\	.	4r	.	4r	.	.	.
.	8g#/J	.	8gg#\J	.	.	.	.	.	.	.
=34	=34	=34	=34	=34	=34	=34	=34	=34	=34	=34
4C#/	4a/	.	4aa\	.	8C#/	ma-	8ee\	ma-	1.ryy	1.ryy
.	.	.	.	.	8C#/	-gno	8ee\	-gno	.	.
!	!	!	!	!	!LO:LB:g=original	!	!	!	!	!
2D/	4r	.	4r	.	4D/	mun-	4dd\	mun-	.	.
.	4r	.	4r	.	4D/	-di	(8cc#\L	-di	.	.
.	.	.	.	.	.	.	8b\J)	.	.	.
!	!LO:N:vis=2	!	!LO:N:vis=2	!	!	!	!	!	!	!
2E\	2.r	.	2.r	.	4.E/	Do-	4.b\	Do-	.	.
.	.	.	.	.	8E/	-mi-	8a/	-mi-	.	.
4AA/	.	.	.	.	4AA/	-no	4a/	-no	.	.
!	!LO:LB:g=original	!	!	!	!	!	!	!	!	!
=35	=35	=35	=35	=35	=35	=35	=35	=35	=35	=35
!	!	!	!	!	!LO:TX:i:a:t=2	!	!LO:TX:i:a:t=2	!	!	!
!	!	!	!	!LO:DY:b	!	!	!	!	!	!
!	!	!LO:DY:b	!	!	!	!	!	!	!	!
4A\	8a\L	f	8cc#\L	f	1.r	.	1.r	.	1.ryy	1.ryy
.	8cc#\J	.	8ee\J	.	.	.	.	.	.	.
4r	8dd\L	.	8ff#\L	.	.	.	.	.	.	.
.	16cc#\L	.	16ee\L	.	.	.	.	.	.	.
.	16b\JJ	.	16dd\JJ	.	.	.	.	.	.	.
4r	8cc#\L	.	8ee\L	.	.	.	.	.	.	.
.	8b\J	.	8dd\J	.	.	.	.	.	.	.
4A\	8a\L	.	8cc#\L	.	.	.	.	.	.	.
.	8cc#\J	.	8ee\J	.	.	.	.	.	.	.
4r	8dd\L	.	8ff#\L	.	.	.	.	.	.	.
.	16cc#\L	.	16ee\L	.	.	.	.	.	.	.
.	16b\JJ	.	16dd\JJ	.	.	.	.	.	.	.
4r	8cc#\L	.	8ee\L	.	.	.	.	.	.	.
.	8b\J	.	8dd\J	.	.	.	.	.	.	.
=36	=36	=36	=36	=36	=36	=36	=36	=36	=36	=36
2A\	8a\L	.	8cc#\L	.	1.r	.	1.r	.	1.ryy	1.ryy
.	8cc#\J	.	8ee\J	.	.	.	.	.	.	.
.	4dd\	.	4ff#\	.	.	.	.	.	.	.
4r	8cc#\L	.	8dd\L	.	.	.	.	.	.	.
.	16b\L	.	16cc#\L	.	.	.	.	.	.	.
.	16a\JJ	.	16b\JJ	.	.	.	.	.	.	.
2E\	4.g#/	.	4.b/	.	.	.	.	.	.	.
.	8a/	.	8a/	.	.	.	.	.	.	.
4AA/	4a/	.	4a/	.	.	.	.	.	.	.
==	==	==	==	==	==	==	==	==	==	==
*-	*-	*-	*-	*-	*-	*-	*-	*-	*-	*-
!!!system-decoration: [(g1)][(g2)][(g3)]
!!!ENC: Andrzej Gręziak
!!!END: 2020-07-29
!!!AIN: 1 alto 1 cello 2 clrno 1 tenor 2 violn
!!!ENC: Kamil Watkowski
!!!END: 2022-03-09
!!!RDF**kern: > = above
!!!RDF**kern: < = below
!!!RDF**dynam: p = piano
!!!RDF**dynam: f = forte
